X:3906
T:Magpie's Nest
O:england
S:Trad, arr. Paddy O'Brien
R:reel
E:9
I:speed 350
M:C|
K:D
B2|:AddA BAFA|BdAF GFED|FAAB AFEF|ABde fddB|\
~A2 dA BAFA|BdAF GFED|FAAB AFEF|ABde fdd2:|\
e2|:faaf ~e2 de|fdec dcBA|fa~a2 bafd|ABde fdde|\
faaf ~e2de|fdec dcBA|~F2 AF ~G2BG|ABde fd d2:|
